X: 88
T: Put Me in the Big Chest
T: Reel, A Mixolydian
L: 1/16
M: C|
K: A Mixolydian
|: F2| E2F2A2B2 c4c2f2| e2c2B2A2 F1F1F2 A2F2| E2F2A2B2 c4c2f2| e2c2B2c2 A1A1A2 A2:| 
|: c2| e2f2e2c2 e2A2A2c2| e2f2e2c2 B2A2B2c2| e2f2e2c2 e2f2b2f2| e2c2B2c2 A1A1A2 A2:| 
D: The Beatons of Mabou, Rounder 7011 (as The Big Coffin Reel)
